!!!COM: Jules Massenet
!!!CNT: Francais
!!!TXO: Francais
!!!OTL: L'air du soir emportait
!!!LYR: Armand Silvestre
!!!OPR: Poe2me du Souvenir
!!!ONM: No. 2
!!!ENC: Jacob Pegg
!!!YOR: Romantic French Song 1830-1870 - David Tunley, ed.,
!!!YOR: New York: Garland Publishing, Inc., 1995, Vol. 6
!!!ODT: 1868/
!!NB: Vocal melody and text only encoded.
!!NB: First instance of melodic material only encoded.
**kern	**silbe
*clef G2	*
*k[f#c#g#d#a#]	*
*M6/4	*
!!created: 12/14/03 15:48
!!proofed and posted: 12/14/03 20:10
!!edit time: 56 min.
=1	=1
1.r	.
=2	=2
{2f#	{L'air
4g#	du
4f#	soir
4g#	em-
4an	-por-
=3	=3
1.g#	-tait
=4	=4
4g#	sous
4g#	les
4g#	feuil-
(4a#	-la-
4b)	|
4a#	-ges
=5	=5
(2a#	som-
4g#)	|
2f#}	-bres,}
4r	.
=6	=6
{4f#	{Comme
4f#	un
4f#	par-
(4f#	-fum
4g#)	|
4an	du
=7	=7
1.g#}	ciel,}
=8	=8
{2ee	{L'a^-
4cc#	-me
4a#	des
4b	vo-
4a#	-lup-
=9	=9
[2.dd#	-te/s;
4dd#]}	|}
4r	.
{4a#	{Les
=10	=10
2.a#	re^-
4a#	-ves
4b	se
4a#	le-
=11	=11
[2.cc#	-vaient
2cc#]	|
4g#	par-
=12	=12
2g#	-tout
4g#	a-
(4g#	-vec
4a#)	|
4g#	les
=13	=13
(1.b	om-
=14	=14
1.g#)}	-bres;}
=15	=15
1r	.
2r	.
=16	=16
{[2.cc#	{Cel-
4cc#]	|
4a#	-le
4cc#	qui
=17	=17
2ff#	fut
4dd#	mon
2b	coeur
4b	e/-
=18	=18
2.ee#	-tait
4dd#	a\
4cc#	mes
4b	co^-
=19	=19
[2.cc#	-te/s.,
2cc#]}	|}
{4cc#	{e/-
=20	=20
2.dd#	-tait
4cc#	a\
4b	mes
4a#	co^-
=21	=21
[1.b	-te/s.
=22	=22
2b]}	|}
4r	.
2.r	.
=23	=23
{2b	{Nous
4ccn	sui-
4b	-vons
4ccn	les
4ddn	grands
=24	=24
[2.ccn	bois
2ccn]	|
4ccn	par-
=25	=25
2.ccn	-mi
4ddn	l'her-
4ee	-be
4ddn	mouil-
=26	=26
(2ddn	-le/-
4ccn)	|
2b}	-e,}
4r	.
=27	=27
{2b	{L'air
4an	au
2.cc#	front,
=28	=28
2b	l'oeil
4an	au
[2.ee	ciel,
=29	=29
4ee]	|
4ddn	la
4f#	bru-
4gn	-ye\re
4b	aux
4an	ge-
=30	=30
[2.b	-noux.
2b]}	|}
4r	.
=31	=31
{2b	{Et
4b	comme
4b	El-
4cc#	-le
4b	sor-
=32	=32
2.a#	-tait,
[2.cc#	blan-
=33	=33
4cc#]	|
4b	-che,
4a#	de
(4a#	la
4g#)	|
4b	feuil-
=34	=34
(2.dd#	-le/-
2.cc#)	|
=35	=35
2cc#}	-e,}
4r	.
4r	.
4r	.
{8f#	{U-
8f#	-ne
=36	=36
(2.ddn	sour-
2b)	-ce
4b	se
=37	=37
2.a#	prit
2cc#	a\
4cc#	ge/-
=38	=38
2.f#	-mir
2f#	pre\s
4f#	de
=39	=39
1.f#}	nous;}
=40	=40
2.r	.
{2b	{Ce
4b	san-
=41	=41
4a#	-glot
4cc#	sans
4ee	pi-
2.cc#	-tie/
=42	=42
2ddn	pour-
4cc#	-sui-
4b	-vant
4b	mon
4b	o-
=43	=43
(2.b	-reil-
4a#)}	-le,}
4r	.
{4a#	{S'en
=44	=44
2.an	fut
4an	jus-
4cc#	-qu'a\
4an	mon
=45	=45
2g#	coeur
4g#	joy-
2.g#}	-eux}
=46	=46
4r	.
4r	.
{4g#	{et
2g#	l'af-
4f#	-fli-
=47	=47
[1.en	-gea;
=48	=48
2.en]}	|}
2.r	.
=49	=49
{2f#	{La
4g#	san-
4f#	-te/
4g#	fleu-
4an	-ris-
=50	=50
[2.g#	-sait,
4g#]	|
4g#	sa
4g#	beau-
=51	=51
(2ee	-te/
4dd#)	|
(4cc#	sans
4b)	|
4a#	pa-
=52	=52
2.dd#	-reil-
2b}	-le;}
4r	.
=53	=53
{2.b	{Et
2b	je
4b	cher-
=54	=54
2b	-chais
4b	pour-
2.b	-quoi
=55	=55
1.ccn	l'on-
=56	=56
[2.b	-de
4b]}	|}
4r	.
{4b	{pleu-
=57	=57
[1.b	-rait
=58	=58
2.b]	|
[2a#	|
8a#]	|
8b	de/-
=59	=59
[1.b	-ja\!
=60	=60
1.b_	|
=61	=61
2b]}	|}
4r	.
2.r	.
*-	*-
